X:1
T:Dido's Lament
T:Dido's Lament
T:Dido & Aeneas Act III
T:Henry Purcell
C:Henry Purcell
%%score 1 2 3
L:1/8
M:3/2
K:Bb
V:1 treble nm="Flute" snm="Fl."
V:2 treble transpose=-2 nm="B♭ Clarinet" snm="B♭ Cl."
V:3 treble transpose=-2 nm="B♭ Clarinet" snm="B♭ Cl."
V:1
 z8 z4 | z12 | z12 | z12 | z12 | G4 A4 B4 | B4 A4 =B4 | (c3 B) A3 G ^F3 G | ^F8 d3 e | d3 c B7 A | %10
 B8 e4 | (e2 A2) A4 d4 | (dG) G2 (A4 G3) ^F | A8 z4 | z12 | G4 A4 B4 | (B4 A4) =B4 | %17
 c3 B A3 G ^F3 G | ^F8 d3 e | (d3 c) PB7 A | B8 e4 | (e2 A2) A4 d4 | (dG) G2 (A4 PG3) ^F | A8 z4 | %24
 z4 z4 z3 d | d3 d d4 z4 | z4 z4 z3 d | d3 d d4 z4 | z4 z4 d4 | c4 B4 c2 A2 | B3 c Pc7 d | %31
 d8 z3 d | g3 g g7 c | de f4 e2 d4 | (c2 B2) B4 (A2 G2) | G8 z3 d | d3 d d4 z4 | z4 z4 z3 d | %38
 d3 d d4 z3 d | c4 B4 c2 A2 | B3 c c7 d | d8 z3 d | g3 g g7 c | de f4 e2 d4 | (c2 B2) B4 (A2 G2) | %45
 G12 | z4 z4 d4 | (d4 ^c4) =c4 | (c4 =B4) _B4 | (B4 A4) d4 | d7 d c3 B | A8 A4 | B7 A G4 | A8 G4 | %54
 G4 P^F7 D | D4 z8 |] %56
V:2
[K:C] z8 z4 | z12 | z12 | z12 | z12 | E8 E4 | D8 E4 | A8 D4 | D8 A4 | A8 ^G4 | E8 C4 | %11
 D4 E4 c2 B2 | A4 ^G4 D4 | ^G8 A4 | A4 ^G8 | C4 B,4 A,4 | D8 E4 | A4 D4 D4 | D8 C4 | B,4 A4 ^G4 | %20
 E8 c4 | d4 E4 c2 B2 | E4 ^G4 D4 | ^G8 A4 | A4 P^G8 | E8 c4 | c4 B4 B4 | B4 A4 d4 | d4 c4 c4 | %29
 B4 A4 B2 ^G2 | E4 ^G4 A4 | B8 A4 | c7 B A4 | d4 c8 | (B2 A2) A4 ^G4 | E8 c4 | (c4 B4) B4 | %37
 B4 d2 c2 B2 A2 | ^G4 c4 c4 | (B4 A4) B2 ^G2 | A4 ^G4 F4 | B8 B4 | c7 B A4 | d4 c4 A4 | %44
 B2 A2 A4 ^G4 | C12 | (c4 B4) B4 | (B4 A7) B | ^G8 a4 | (a4 ^g4) _g4 | (g4 ^f4) =f4 | (f4 e4) e4 | %52
 (e4 ^d4) =d4 | (d4 ^c4) =c4 | B4 PB7 A | A4 z8 |] %56
V:3
[K:C] z8 A4 | ^G8 =G4 | ^F8 =F4 | E8 C4 | D4 E8 | A,8 A4 | ^G8 =G4 | ^F8 =F4 | E8 C4 | D4 E4 E,4 | %10
 A,8 A4 | ^G8 =G4 | ^F8 =F4 | E8 C4 | D4 E4 E,4 | A,8 A4 | ^G8 =G4 | ^F8 =F4 | E8 C4 | D4 E8 | %20
 A,8 A4 | ^G8 =G4 | ^F8 =F4 | E8 C4 | D4 E4 E,4 | A,8 A4 | ^G8 =G4 | ^F8 =F4 | E8 C4 | D4 E4 E,4 | %30
 A,8 A4 | ^G8 =G4 | ^F8 =F4 | E8 C4 | D4 E4 E,4 | A,8 A4 | ^G8 =G4 | ^F8 =F4 | E8 C4 | D4 E4 E,4 | %40
 A,8 A4 | ^G8 =G4 | ^F8 =F4 | E8 C4 | D4 E4 E,4 | A,8 A4 | ^G8 =G4 | ^F8 =F4 | E8 C4 | D4 E4 E,4 | %50
 A,8 A4 | ^G8 =G4 | ^F8 =F4 | E8 C4 | D4 E4 E,4 | A,4 z4 z4 |] %56

